X: 15
T: THE TRIUMPH (Dorset version)
S: "Community Dances Manual 5", EFDSS, Michael Bell ed., 1957 p.9
R: reel
Z: 2010 John Chambers <jc:trillian.mit.edu>
M: C
L: 1/8
K: A
"A"|: a !Segno!|\
"A"ecce "D7"dcdB | "A"Aaga "D"f2fa | "A"ecce "E7"dcdB | "A"AcBA A3 :|
"B"|: c |\
"E7"B3d "A"c2e2 | "E7"B3d "A"c2e2 | "E7"B2d2 "A"ceaf | "E7"edcB | "A"A3 :|
"C"|: A |\
"A"c3e "E7"edcB | "A"c2e2 "E7"edcB | "A"c2e2 "D"fgaf |1 "E"edcB "D"A3 :|2 "E"gabg "D"bag"to"f!Segno!||
%%text Last round only
"C"[|] A |\
"A"c3e "E7"edcB | "A"c2e2 "E7"edcB | "A"ABcd efga | "E7"gabg "A"Ha2 |]


%%sep 5 1 500

%%sep 1 1 500

